X:4101
T:Pelorus Jack
P:Christian Catto
C:Allan Kindness
R:Jig (8x32)
B:RSCDS 41-1
Z:Anselm Lingnau <anselm@strathspey.org>
M:6/8
L:1/8
K:F
c|"F"ABc d2c|a2g f3|ABc "F/A"f2e|"Bb"d3 "(D7/A)"d3|\
  [1 "Gm"G^FG BAB|g2f e2d|
                          "C"c=Bc "C7/E"d2c|"F"A3 A2:|\
  [2 "Go"f2f "C7"gfe|"F/A"f2c "Dm"A3|"C7/G"c2c "C7"BAG|"F"F3 F2||
d|"Dm"A2d "Dm/F"d^cd|"A7"f2e "Dm"d3|A2f "A7"efe|"Dm"d3 d3|\
  "C"G2c "C/E"c=Bc|"G7"e2d c3|
                              "G"g^fg "G7"=fed|"C"cdc "C7"BAG|\
  "F"ABc d2c|a2g f3|ABc "F/A"f2e|"Bb"d3 d3|
  "Go"f2f "C7"gfe|"F/A"f2c "Dm"A3|"C7/G"c2c "C7"BAG|"F"F3 F2|]
